www/assets/icons/redo.svg

<svg width="24" height="24" viewBox="0 0 24 24" xmlns="http://www.w3.org/2000/svg" fill='currentColor'><path d="M18.63 11.1C16.78 9.49 14.38 8.5 11.73 8.5C7.08002 8.5 3.15002 11.53 1.77002 15.72L4.13002 16.5C5.18002 13.31 8.18002 11 11.73 11C13.68 11 15.46 11.72 16.85 12.88L13.23 16.5H22.23V7.5L18.63 11.1Z"/></svg>

<svg xmlns="http://www.w3.org/2000/svg" width="24" height="24" viewBox="0 0 24 24" fill='currentColor'><path d="M18.63 11.1c-1.85-1.61-4.25-2.6-6.9-2.6-4.65 0-8.58 3.03-9.96 7.22l2.36.78a8 8 0 0 1 7.6-5.5c1.95 0 3.73.72 5.12 1.88l-3.62 3.62h9v-9z"/></svg>
